icons/patient_band_alt_fill.svg

<svg width="48" height="48" viewBox="0 0 48 48" fill="none" xmlns="http://www.w3.org/2000/svg">
<path fill-rule="evenodd" clip-rule="evenodd" d="M8.44321 15.8574C8.15939 15.5736 7.99994 15.1887 7.99994 14.7873V13.2426C7.99994 12.7121 7.78923 12.2034 7.41416 11.8284L5.70705 10.1213C4.53547 8.94969 4.53548 7.05019 5.70705 5.87862L5.87862 5.70705C7.05019 4.53548 8.94969 4.53548 10.1213 5.70705L11.8284 7.41416C12.2034 7.78923 12.7122 7.99994 13.2426 7.99994H14.7873C15.1887 7.99994 15.5736 8.15939 15.8574 8.44321L24.6464 17.2322C25.5131 18.0988 25.9999 19.2743 25.9999 20.4999C25.9999 21.1952 26.2761 21.8619 26.7677 22.3535L42.2071 37.7928C43.426 39.0118 43.426 40.9881 42.2071 42.2071C40.9881 43.426 39.0118 43.426 37.7928 42.2071L22.3535 26.7677C21.8619 26.2761 21.1952 25.9999 20.4999 25.9999C19.2743 25.9999 18.0988 25.5131 17.2322 24.6464L8.44321 15.8574ZM8 9C8.55228 9 9 8.55228 9 8C9 7.44772 8.55228 7 8 7C7.44772 7 7 7.44772 7 8C7 8.55228 7.44772 9 8 9ZM26 27C26.5523 27 27 26.5523 27 26C27 25.4477 26.5523 25 26 25C25.4477 25 25 25.4477 25 26C25 26.5523 25.4477 27 26 27ZM30 29C30 29.5523 29.5523 30 29 30C28.4477 30 28 29.5523 28 29C28 28.4477 28.4477 28 29 28C29.5523 28 30 28.4477 30 29ZM32 33C32.5523 33 33 32.5523 33 32C33 31.4477 32.5523 31 32 31C31.4477 31 31 31.4477 31 32C31 32.5523 31.4477 33 32 33ZM36 35C36 35.5523 35.5523 36 35 36C34.4477 36 34 35.5523 34 35C34 34.4477 34.4477 34 35 34C35.5523 34 36 34.4477 36 35ZM38 39C38.5523 39 39 38.5523 39 38C39 37.4477 38.5523 37 38 37C37.4477 37 37 37.4477 37 38C37 38.5523 37.4477 39 38 39ZM13.2929 11.7071L11.7071 13.2929C11.3166 13.6834 11.3166 14.3166 11.7071 14.7071L19.2929 22.2929C19.6834 22.6834 20.3166 22.6834 20.7071 22.2929L22.2929 20.7071C22.6834 20.3166 22.6834 19.6834 22.2929 19.2929L14.7071 11.7071C14.3166 11.3166 13.6834 11.3166 13.2929 11.7071Z" fill="black"/>
</svg>

<svg
  xmlns="http://www.w3.org/2000/svg"
  width="24"
  height="24"
  viewBox="0 0 24 24"
  fill="none"
  stroke="currentColor"
  stroke-width="2"
  stroke-linecap="round"
  stroke-linejoin="round"
>
  <path
    fill-rule="evenodd"
    d="M8.443 15.857A1.51 1.51 0 0 1 8 14.787v-1.544a2 2 0 0 0-.586-1.415l-1.707-1.707a3 3 0 0 1 0-4.242l.172-.172a3 3 0 0 1 4.242 0l1.707 1.707A2 2 0 0 0 13.243 8h1.544c.402 0 .787.16 1.07.443l8.79 8.79A4.62 4.62 0 0 1 26 20.5c0 .695.276 1.362.768 1.854l15.44 15.439a3.122 3.122 0 0 1-4.415 4.414l-15.44-15.44A2.62 2.62 0 0 0 20.5 26a4.62 4.62 0 0 1-3.268-1.354zM8 9a1 1 0 1 0 0-2 1 1 0 0 0 0 2m18 18a1 1 0 1 0 0-2 1 1 0 0 0 0 2m4 2a1 1 0 1 1-2 0 1 1 0 0 1 2 0m2 4a1 1 0 1 0 0-2 1 1 0 0 0 0 2m4 2a1 1 0 1 1-2 0 1 1 0 0 1 2 0m2 4a1 1 0 1 0 0-2 1 1 0 0 0 0 2M13.293 11.707l-1.586 1.586a1 1 0 0 0 0 1.414l7.586 7.586a1 1 0 0 0 1.414 0l1.586-1.586a1 1 0 0 0 0-1.414l-7.586-7.586a1 1 0 0 0-1.414 0"
    clip-rule="evenodd"
  />
</svg>
